contributed-vectors/yoomoney.svg

<svg width="192" height="192" viewBox="0 0 192 192" fill="none" xmlns="http://www.w3.org/2000/svg">
<path fill-rule="evenodd" clip-rule="evenodd" d="M96 184C144.601 184 184 144.601 184 96C184 47.399 144.601 8 96 8C47.399 8 8 47.399 8 96C8 144.601 47.399 184 96 184Z" fill="#BD9AFF"/>
<path d="M111.714 61.3279C91.0439 61.3279 74.4337 78.0496 74.4337 98.4872C74.4337 119.093 91.2074 135.647 111.709 135.647C132.211 135.647 149 118.925 149 98.4872C149 78.0496 132.216 61.3279 111.714 61.3279ZM111.714 112.338C104.089 112.338 97.8217 106.088 97.8217 98.4872C97.8217 90.8869 104.089 84.6367 111.714 84.6367C119.339 84.6367 125.609 90.8869 125.609 98.4872C125.439 106.088 119.339 112.338 111.714 112.338Z" fill="white"/>
<path d="M74.4337 72.124V126.174H61.2247L44.2801 72.124H74.4337Z" fill="white"/>
</svg>

<svg xmlns="http://www.w3.org/2000/svg" width="192" height="192" fill="none"><path fill="#BD9AFF" fill-rule="evenodd" d="M96 184c48.601 0 88-39.399 88-88S144.601 8 96 8 8 47.399 8 96s39.399 88 88 88Z" clip-rule="evenodd"/><path fill="#fff" d="M111.714 61.328c-20.67 0-37.28 16.722-37.28 37.16 0 20.605 16.773 37.159 37.275 37.159S149 118.925 149 98.487c0-20.437-16.784-37.16-37.286-37.16Zm0 51.01c-7.625 0-13.892-6.25-13.892-13.85 0-7.601 6.267-13.851 13.892-13.851 7.625 0 13.895 6.25 13.895 13.85-.17 7.601-6.27 13.851-13.895 13.851ZM74.434 72.124v54.05h-13.21L44.28 72.124h30.154Z"/></svg>
